src/lib/packages/icons/src/assets/filled/baseball.svg

<svg width="24" height="24" viewBox="0 0 24 24" fill="none" xmlns="http://www.w3.org/2000/svg">
<path d="M21 12.75C20.3 12.75 19.6 12.67 18.92 12.53C18.52 12.44 18.26 12.04 18.35 11.64C18.44 11.24 18.84 10.9801 19.24 11.0701C20.13 11.2601 21.05 11.31 21.96 11.2C21.57 6.32004 17.69 2.44005 12.81 2.05005C12.77 2.37005 12.75 2.69004 12.75 3.01004C12.75 3.69004 12.83 4.36004 13 5.01004C13.1 5.41004 12.86 5.82004 12.45 5.92004C12.39 5.94004 12.33 5.94005 12.27 5.94005C11.93 5.94005 11.63 5.71004 11.54 5.37004C11.35 4.60004 11.25 3.81004 11.25 3.01004C11.25 2.69004 11.27 2.37005 11.3 2.05005C6.33999 2.40005 2.38001 6.36005 2.04001 11.3201C3.06001 11.2201 4.08999 11.2701 5.07999 11.4901C5.47999 11.5801 5.73999 11.9801 5.64999 12.3801C5.55999 12.7801 5.16001 13.04 4.76001 12.95C3.87001 12.76 2.95001 12.7101 2.04001 12.8201C2.43001 17.7001 6.31 21.58 11.19 21.97C11.23 21.65 11.25 21.33 11.25 21.01C11.25 20.33 11.17 19.66 11 19.01C10.9 18.61 11.14 18.2001 11.55 18.1001C11.95 18.0001 12.36 18.24 12.46 18.65C12.65 19.42 12.75 20.21 12.75 21.01C12.75 21.33 12.73 21.65 12.7 21.97C17.66 21.62 21.62 17.66 21.96 12.7C21.64 12.73 21.32 12.76 21 12.76V12.75ZM10.94 16.7101C10.81 16.7901 10.67 16.83 10.53 16.83C10.29 16.83 10.05 16.7101 9.89999 16.4901C9.58999 16.0101 9.23001 15.57 8.82001 15.16L8.73999 15.08L8.72 15.06C8.28 14.64 7.80001 14.27 7.29001 13.95C6.94001 13.73 6.83001 13.27 7.04001 12.92C7.26001 12.57 7.72001 12.46 8.07001 12.67C8.68001 13.05 9.26 13.4901 9.78 13.9901C9.78 13.9901 9.78999 14 9.79999 14.01L9.88 14.09C10.36 14.57 10.78 15.1 11.15 15.66C11.38 16.01 11.28 16.47 10.93 16.7L10.94 16.7101ZM16.95 11.06C16.81 11.29 16.56 11.42 16.31 11.42C16.18 11.42 16.04 11.38 15.92 11.31C15.31 10.93 14.73 10.4901 14.21 9.99005C14.21 9.99005 14.2 9.98005 14.19 9.97005L14.11 9.89005C13.63 9.41005 13.21 8.88005 12.84 8.32005C12.61 7.97005 12.71 7.51004 13.06 7.28004C13.41 7.05004 13.87 7.15005 14.1 7.50005C14.41 7.98005 14.77 8.42005 15.18 8.83005L15.26 8.91005L15.28 8.93004C15.72 9.35004 16.2 9.72004 16.71 10.04C17.06 10.26 17.17 10.7201 16.96 11.0701L16.95 11.06Z" fill="currentColor"/>
</svg>

<svg xmlns="http://www.w3.org/2000/svg" width="24" height="24" fill="none"><path fill="currentColor" d="M21 12.75c-.7 0-1.4-.08-2.08-.22a.75.75 0 0 1-.57-.89c.09-.4.49-.66.89-.57.89.19 1.81.24 2.72.13a9.98 9.98 0 0 0-9.15-9.15A7.887 7.887 0 0 0 13 5.01a.748.748 0 0 1-.73.93c-.34 0-.64-.23-.73-.57a9.84 9.84 0 0 1-.29-2.36c0-.32.02-.64.05-.96-4.96.35-8.92 4.31-9.26 9.27 1.02-.1 2.05-.05 3.04.17.4.09.66.49.57.89a.75.75 0 0 1-.89.57c-.89-.19-1.81-.24-2.72-.13a9.98 9.98 0 0 0 9.15 9.15 7.887 7.887 0 0 0-.19-2.96c-.1-.4.14-.81.55-.91.4-.1.81.14.91.55.19.77.29 1.56.29 2.36 0 .32-.02.64-.05.96 4.96-.35 8.92-4.31 9.26-9.27-.32.03-.64.06-.96.06v-.01Zm-10.06 3.96c-.13.08-.27.12-.41.12-.24 0-.48-.12-.63-.34a8.06 8.06 0 0 0-1.08-1.33l-.08-.08-.02-.02c-.44-.42-.92-.79-1.43-1.11a.76.76 0 0 1-.25-1.03.76.76 0 0 1 1.03-.25 10.4 10.4 0 0 1 1.73 1.34l.08.08c.48.48.9 1.01 1.27 1.57.23.35.13.81-.22 1.04l.01.01Zm6.01-5.65c-.14.23-.39.36-.64.36-.13 0-.27-.04-.39-.11a10.4 10.4 0 0 1-1.71-1.32l-.02-.02-.08-.08c-.48-.48-.9-1.01-1.27-1.57a.747.747 0 0 1 .22-1.04c.35-.23.81-.13 1.04.22.31.48.67.92 1.08 1.33l.08.08.02.02c.44.42.92.79 1.43 1.11.35.22.46.68.25 1.03l-.01-.01Z"/></svg>
